Simply-Blue-Circles/scalable/apps/gnome-panel.svg

<svg xmlns="http://www.w3.org/2000/svg" width="48" height="48" viewBox="0 0 12.7 12.7"><path fill="#2c89a0" d="M6.344.073a6.29 6.29 0 0 0-6.29 6.29 6.29 6.29 0 0 0 6.29 6.288 6.29 6.29 0 0 0 6.29-6.289 6.29 6.29 0 0 0-6.29-6.29zm-.018.936a5.407 5.407 0 0 1 4.109 1.901H2.212a5.407 5.407 0 0 1 4.114-1.9zM1.608 3.78h1.086a.22.22 0 0 1 .088.019.336.336 0 0 1 .157.17.52.52 0 0 1 .04.197v4.392a.52.52 0 0 1-.04.198.481.481 0 0 1-.041.071.319.319 0 0 1-.116.099c-.027.008-.058.018-.088.018H1.55a5.407 5.407 0 0 1-.307-.698V4.592a5.407 5.407 0 0 1 .365-.812zm2.06.002c.011-.002.021 0 .034 0h7.338a5.407 5.407 0 0 1 .693 2.635 5.407 5.407 0 0 1-.63 2.528H3.701a.224.224 0 0 1-.089-.017.327.327 0 0 1-.156-.17.52.52 0 0 1-.041-.197V4.167a.52.52 0 0 1 .04-.197.326.326 0 0 1 .157-.17.29.29 0 0 1 .054-.019zm4.135.305c-.942 0-1.118 1.342-.588 1.342.53 0 1.53-1.342.588-1.342zM6.3 4.254c-.53.069-.343.99-.06 1.008.282.017.59-1.077.06-1.008zm-5.06.344v3.64a5.407 5.407 0 0 1-.32-1.821 5.407 5.407 0 0 1 .322-1.818zm4.173.018a.274.274 0 0 0-.075.02c-.426.176-.065.902.174.853.224-.046.25-.91-.1-.873zm-.662.568a.199.199 0 0 0-.12.04c-.34.236.115.806.315.717.176-.077.064-.748-.195-.757zm1.947.436c-.73-.013-1.695.354-1.86 1.09-.178.798.734 1.904 1.685 1.904.467 0 1.007-.423 1.108-.958.077-.408-.908-.244-.872.026.042.323-.237.483-.511.275-.873-.665 1.444-.996 1.291-1.904-.047-.282-.402-.426-.84-.433zM2.103 9.79h8.441a5.407 5.407 0 0 1-4.218 2.033 5.407 5.407 0 0 1-4.223-2.032z"/></svg>

<?xml version="1.0" encoding="UTF-8" standalone="no"?>
<svg
   xmlns:dc="http://purl.org/dc/elements/1.1/"
   xmlns:cc="http://creativecommons.org/ns#"
   xmlns:rdf="http://www.w3.org/1999/02/22-rdf-syntax-ns#"
   xmlns:svg="http://www.w3.org/2000/svg"
   xmlns="http://www.w3.org/2000/svg"
   xmlns:sodipodi="http://sodipodi.sourceforge.net/DTD/sodipodi-0.dtd"
   xmlns:inkscape="http://www.inkscape.org/namespaces/inkscape"
   width="48"
   height="48"
   viewBox="0 0 12.7 12.7"
   version="1.1"
   id="svg13"
   sodipodi:docname="gnome-panel.svg"
   inkscape:version="0.92.4 (5da689c313, 2019-01-14)">
  <metadata
     id="metadata17">
    <rdf:RDF>
      <cc:Work
         rdf:about="">
        <dc:format>image/svg+xml</dc:format>
        <dc:type
           rdf:resource="http://purl.org/dc/dcmitype/StillImage" />
        <dc:title></dc:title>
      </cc:Work>
    </rdf:RDF>
  </metadata>
  <sodipodi:namedview
     pagecolor="#ffffff"
     bordercolor="#666666"
     borderopacity="1"
     objecttolerance="10"
     gridtolerance="10"
     guidetolerance="10"
     inkscape:pageopacity="0"
     inkscape:pageshadow="2"
     inkscape:window-width="1087"
     inkscape:window-height="480"
     id="namedview15"
     showgrid="false"
     inkscape:zoom="4.9166667"
     inkscape:cx="2.1355932"
     inkscape:cy="24"
     inkscape:window-x="0"
     inkscape:window-y="25"
     inkscape:window-maximized="0"
     inkscape:current-layer="svg13" />
  <defs
     id="defs9">
    <linearGradient
       id="a">
      <stop
         offset="0"
         stop-color="#fff"
         id="stop2" />
      <stop
         offset=".515"
         id="stop4" />
      <stop
         offset="1"
         id="stop6" />
    </linearGradient>
  </defs>
  <path
     d="m 6.344,0.073 a 6.29,6.29 0 0 0 -6.29,6.29 6.29,6.29 0 0 0 6.29,6.288 6.29,6.29 0 0 0 6.29,-6.289 6.29,6.29 0 0 0 -6.29,-6.29 z M 6.326,1.009 A 5.407,5.407 0 0 1 10.435,2.91 H 2.212 A 5.407,5.407 0 0 1 6.326,1.01 Z M 1.608,3.78 h 1.086 c 0.03,0 0.061,0.007 0.088,0.019 a 0.336,0.336 0 0 1 0.157,0.17 0.52,0.52 0 0 1 0.04,0.197 V 8.558 A 0.52,0.52 0 0 1 2.939,8.756 0.481,0.481 0 0 1 2.898,8.827 0.319,0.319 0 0 1 2.782,8.926 C 2.755,8.934 2.724,8.944 2.694,8.944 H 1.55 A 5.407,5.407 0 0 1 1.243,8.246 V 4.592 A 5.407,5.407 0 0 1 1.608,3.78 Z m 2.06,0.002 c 0.011,-0.002 0.021,0 0.034,0 h 7.338 a 5.407,5.407 0 0 1 0.693,2.635 5.407,5.407 0 0 1 -0.63,2.528 H 3.701 A 0.224,0.224 0 0 1 3.612,8.928 0.327,0.327 0 0 1 3.456,8.758 0.52,0.52 0 0 1 3.415,8.561 V 4.167 A 0.52,0.52 0 0 1 3.455,3.97 0.326,0.326 0 0 1 3.612,3.8 C 3.628,3.793 3.65,3.784 3.666,3.781 Z m 4.135,0.305 c -0.942,0 -1.118,1.342 -0.588,1.342 0.53,0 1.53,-1.342 0.588,-1.342 z M 6.3,4.254 C 5.77,4.323 5.957,5.244 6.24,5.262 6.522,5.279 6.83,4.185 6.3,4.254 Z M 1.24,4.598 v 3.64 A 5.407,5.407 0 0 1 0.92,6.417 5.407,5.407 0 0 1 1.242,4.599 Z M 5.413,4.616 A 0.274,0.274 0 0 0 5.338,4.636 C 4.912,4.812 5.273,5.538 5.512,5.489 5.736,5.443 5.762,4.579 5.412,4.616 Z M 4.751,5.184 a 0.199,0.199 0 0 0 -0.12,0.04 C 4.291,5.46 4.746,6.03 4.946,5.941 5.122,5.864 5.01,5.193 4.751,5.184 Z M 6.698,5.62 C 5.968,5.607 5.003,5.974 4.838,6.71 4.66,7.508 5.572,8.614 6.523,8.614 6.99,8.614 7.53,8.191 7.631,7.656 7.708,7.248 6.723,7.412 6.759,7.682 6.801,8.005 6.522,8.165 6.248,7.957 5.375,7.292 7.692,6.961 7.539,6.053 7.492,5.771 7.137,5.627 6.699,5.62 Z M 2.103,9.79 h 8.441 A 5.407,5.407 0 0 1 6.326,11.823 5.407,5.407 0 0 1 2.103,9.791 Z"
     id="path11"
     inkscape:connector-curvature="0"
     style="fill:#2c89a0" />
</svg>
